!!!!SEGMENT: Gsc2001-Dulcis_mater.krn
!!!id: Gsc2001
!!!AGN: Motet
!!!voices: 4
!!!COM: Mathieu Gascongne
!!!OTL: Dulcis mater
**kern	**kern	**kern
*part3	*part2	*part1
*staff3	*staff2	*staff1
*I"Bassus	*I"Tenor	*I"Superius
*I'B	*I'T	*I'S
*clefF4	*clefGv2	*clefGv2
*k[]	*k[]	*k[]
*C:	*C:	*C:
*M2/1	*M2/1	*M2/1
*met(C|)	*met(C|)	*met(C|)
!!Section: Prima pars: Dulcis mater
!!!OMD: Prima pars: Dulcis mater
=1	=1	=1
0G	0r	0r
=2	=2	=2
1.E	0r	0r
2C	.	.
=3	=3	=3
[0C	0r	1E
.	.	[1G
=4	=4	=4
0C]	0r	1G]
.	.	1A
=5	=5	=5
1C	1E	2.G
.	.	4F
2BB	[1G	2D
[2C	.	[2E
=6	=6	=6
4C]	1G]	4E]
4BB	.	4D
2GG	.	1G
1D	1A	.
.	.	2F#i
=7	=7	=7
2.E	0G	2G
.	.	2.B
4D	.	.
2C	.	.
.	.	4c
2BB	.	2d
=8	=8	=8
1AA	1c	1e
2.D	2B	2d
.	[2A	[2c
4E	.	.
=9	=9	=9
2F	4A]	2c]
.	4G	.
2G	1G	2B
1D	.	1A
.	2F#i	.
=10	=10	=10
0GG	0G	1G
.	.	1r
=11	=11	=11
1r	0r	1G
1C	.	1A
=12	=12	=12
1D	0r	1B
1E	.	2B
.	.	[2B
=13	=13	=13
1E	0r	2B]
.	.	4A
.	.	4G
2.D	.	2A
.	.	[2B
4C	.	.
=14	=14	=14
2BB	1G	4B]
.	.	4A
2C	.	1G
1AA	1A	.
.	.	2F#i
=15	=15	=15
2GG	1B	1G
1G	.	.
.	2B	1r
4F	[2B	.
4E	.	.
=16	=16	=16
2.D	2B]	2r
.	4A	1d
4E	4G	.
2F	2A	.
[2G	[2B	2d
=17	=17	=17
4G]	4B]	1e
4F	4A	.
2E	1G	.
1D	.	1f
.	2F	.
=18	=18	=18
0C	0G	0e
=19	=19	=19
2r	0r	1c
1C	.	.
.	.	1A
2C	.	.
=20	=20	=20
1D	2r	1B
.	1G	.
1E	.	1c
.	2G	.
=21	=21	=21
0D	1A	2d
.	.	2.D
.	1B	.
.	.	4E
.	.	[2F
=22	=22	=22
2r	0A	2F]
1C	.	4E
.	.	4D
.	.	2E
2AA	.	2F
=23	=23	=23
1BB	2r	1D
.	1G	.
1C	.	2r
.	2E	[2c
=24	=24	=24
1AA	1F	2c]
.	.	2A
1GG	1G	1B
=25	=25	=25
2r	1E	1c
1G	.	.
.	1D	1A
2F	.	.
=26	=26	=26
2G	[0G	4G
.	.	4A
1GG	.	4B
.	.	4c
.	.	2d
[2C	.	[2e
=27	=27	=27
4C]	0G]	4e]
4BB	.	4d
1BB	.	1d
[2E	.	2c#i
=28	=28	=28
4E]	1A	[0d
4D	.	.
1D	.	.
.	2.B-i	.
[2G	.	.
.	4A	.
=29	=29	=29
4G]	2G	0d]
4F	.	.
2.A	2F	.
.	1G	.
4G	.	.
[2G	.	.
=30	=30	=30
2G]	0A	2r
4F	.	1d
4E	.	.
2F	.	.
[2C	.	[2e
=31	=31	=31
2C]	[0G	2e]
4BB	.	4d
4AA	.	4c
2.C	.	2.e
4BB	.	4d
=32	=32	=32
0GG;	0G;]	0B;
=33	=33	=33
1D	0r	0r
[1G	.	.
=34	=34	=34
2G]	0r	1r
4F	.	.
4E	.	.
1F	.	1D
=35	=35	=35
1G	1G	1.G
[1A	[1c	.
.	.	4F
.	.	4E
=36	=36	=36
1A]	2c]	1F
.	4B	.
.	4A	.
1r	1B	1G
=37	=37	=37
1r	1c	0A
1D	[1d	.
=38	=38	=38
1.G	1d]	1B
.	1B	[1d
4F	.	.
4E	.	.
=39	=39	=39
4F	0d	2d]
4G	.	.
2.A	.	2c
.	.	1B
4G	.	.
[2G	.	.
=40	=40	=40
2G]	1c	1A
2F#i	.	.
2G	[1B	2.G
[2GG	.	.
.	.	4A
=41	=41	=41
4GG]	1B]	4B
4AA	.	4c
4BB	.	1d
4C	.	.
4D	1A	.
4E	.	.
[2F	.	4c
.	.	4B
=42	=42	=42
4F]	2.c	2A
4E	.	.
4C	.	1G
4D	4B	.
4E	2c	.
4D	.	.
2F	[2d	[2A
=43	=43	=43
2E	4d]	4A]
.	4c	4G
4D	1c	1G
4C	.	.
1D	.	.
.	2B	2F
=44	=44	=44
0C	0c	1G
.	.	1r
=45	=45	=45
1F	2r	0r
.	1c	.
2E	.	.
2D	2B	.
=46	=46	=46
1F	2A	0r
.	1c	.
2E	.	.
[2G	2B	.
=47	=47	=47
4G]	2.d	0r
4F	.	.
2D	.	.
.	4c	.
2.F	2A	.
.	[2c	.
4E	.	.
=48	=48	=48
2.C	4c]	1c
.	4B	.
.	1G	.
4D	.	.
2E	.	2B
[2F	[2A	2A
=49	=49	=49
4F]	2A]	1c
4E	.	.
4C	4G	.
4D	4F	.
2E	2G	2B
2D	[2A	[2d
=50	=50	=50
2.F	4A]	4d]
.	4G	4c
.	[1.c	2A
4E	.	.
1C	.	2.c
.	.	4B
=51	=51	=51
1E	4c]	1G
.	4B	.
.	2G	.
2D	1A	2F
2C	.	2E
=52	=52	=52
4C	1G	4E
4BB	.	4D
2GG	.	1G
1AA	1r	.
.	.	2F#i
=53	=53	=53
1GG	2r	1G
.	1B	.
2r	.	2D
2D	2A	[2F
=54	=54	=54
1C	2.c	2F]
.	.	2E
.	4B	.
2D	2A	2F
2E	2G	[2G
=55	=55	=55
1D	1A	2G]
.	.	2F
1GG	2G	1G
.	[2B	.
=56	=56	=56
2r	2B]	2D
2D	2A	1F
1C	2.c	.
.	.	2E
.	4B	.
=57	=57	=57
2D	2A	2F
2E	2G	1G
1D	1A	.
.	.	2F#i
=58	=58	=58
0GG	0G	1G
.	.	1r
=59	=59	=59
2r	0r	1B
1G	.	.
.	.	[1d
4F	.	.
4E	.	.
=60	=60	=60
2D	1r	2d]
2BB	.	2d
2.C	1E	1e
4BB	.	.
=61	=61	=61
2.GG	1.G	1.d
4AA	.	.
4BB	.	.
4GG	.	.
[2G	2G	4c
.	.	4B
=62	=62	=62
2G]	1A	2.c
2F	.	.
.	.	4A
2G	1G	2B
[2C	.	2c
=63	=63	=63
4C]	1c	1A
4D	.	.
4E	.	.
4F	.	.
2G	2B	2G
2D	[2A	[2d
=64	=64	=64
1E	4A]	2d]
.	4G	.
.	1G	2c
1D	.	[1d
.	2F	.
=65	=65	=65
1.E	[0G	2d]
.	.	2c
.	.	2B
2C	.	4c
.	.	4B
=66	=66	=66
0C	0G]	0c
=67	=67	=67
0E	0G	0c
=68	=68	=68
1.F	1.A	1c
.	.	1c
2F	2A	.
=69	=69	=69
1D	1B	1d
1C	1c	1e
=70	=70	=70
1BB-i	1d	2f
.	.	1f
1BB-i	1d	.
.	.	4e
.	.	4d
=71	=71	=71
[0C	0c	0e
=72	=72	=72
0C]	1r	1r
.	1c	1e
=73	=73	=73
1r	2.B	1d
.	4G	.
1C	2A	1c
.	[2G	.
=74	=74	=74
1.G	4G]	1B
.	4A	.
.	1B	.
.	.	[1d
4F	4A	.
4E	4G	.
=75	=75	=75
2D	2.A	2d]
2E	.	2c
.	4G	.
1F	4A	2c
.	4B	.
.	[2A	4B
.	.	4A
=76	=76	=76
1G	2A]	2.B
.	2G	.
.	.	4c
1C	2.F	1A
.	4E	.
=77	=77	=77
2.BB	2D	1G
.	1G	.
4C	.	.
1AA	.	[1c
.	2F#i	.
=78	=78	=78
0GG	[0Gl	2c]
.	.	4B
.	.	4A
.	.	1B
=79	=79	=79
0C	0G_	0c
=80	=80	=80
00GGl	00G]	00Bl
==	==	==
*-	*-	*-
!!!system-decoration: [*]
!!!RDF**kern: i = editorial accidental
!!!RDF**kern: l = terminal long
!!!ENC: Theodor Dumitrescu
!!!END: 2025/5/7
!!!EED: Benjamin Ory
!!!EEV: 2025/05/07
!!!YEC: Copyright 2025 Theodor Dumitrescu, All Rights Reserved
!!!ONB: Translated from MusicXML on 2025/05/07
!!!verovio: header encoded
!!!header-left: Transcribed by @{ENC}\n
!!!header-right:
!!!header-center: